src/includes/Icons/artisan-trayicon-large.svg

<?xml version="1.0" encoding="UTF-8" standalone="no"?>
<svg
   width="22"
   height="22"
   viewBox="0 0 21.993534 21.993534"
   id="svg1602"
   version="1.1"
   xmlns="http://www.w3.org/2000/svg"
   xmlns:svg="http://www.w3.org/2000/svg">
  <defs
     id="defs830" />
  <path
     id="path1193"
     style="fill:#4c97c3;fill-opacity:1;stroke-width:0.0149607"
     d="m 11.20331,1.9999834 c -1.2797536,0.00174 -2.5600466,0.00719 -3.8400491,0.00219 H 7.2272134 l -0.1382417,0.00659 C 4.475135,2.0865984 2.1634578,4.3362443 2.0179123,6.9486957 c -0.0319,2.652366 -0.014558,5.3053583 -0.00658,7.9557293 0.077757,2.618438 2.329556,4.928031 4.9394006,5.071722 2.6517185,0.02995 5.3048631,0.01475 7.9565821,0.0088 2.613837,-0.07784 4.923318,-2.329678 5.068865,-4.94213 0.02991,-2.650369 0.01473,-5.3033633 0.0088,-7.9557291 C 19.90722,4.470645 17.65104,2.1612567 15.04119,2.017562 13.762185,1.9996 12.483089,1.998243 11.203336,1.99999 Z m -0.204072,3.8306989 v 0.00219 c 0.646979,-0.00219 1.290577,0.1253276 1.891499,0.3646193 1.758906,0.6717728 3.017311,2.3732063 3.254167,4.2282654 0.05045,1.466485 0.01093,2.937502 0.02194,4.403985 0.03071,0.612499 0.0348,1.364225 -0.550772,1.735237 -0.712773,0.542248 -1.880572,0.02369 -1.974882,-0.861028 -0.0307,-1.552104 -0.01541,-3.10448 -0.01317,-4.654388 C 13.65653,9.9936057 13.002114,8.9604879 12.008616,8.5784994 10.776066,8.0252746 9.1952094,8.6186904 8.6359559,9.8502737 8.0109083,11.044537 8.507119,12.651156 9.6892264,13.296585 c 0.7149656,0.469808 1.5825226,0.296556 2.3808306,0.362422 0.861908,0.03293 1.371243,1.094247 0.987441,1.827491 -0.269757,0.577371 -0.946061,0.751174 -1.531631,0.69629 -1.18868,0.07025 -2.4076816,-0.211219 -3.3989849,-0.885187 C 6.3855214,14.169202 5.4895602,11.924901 5.9479285,9.9029967 6.4216487,7.5935028 8.641603,5.7911663 10.999238,5.8306823 Z" />
</svg>

<svg xmlns="http://www.w3.org/2000/svg" width="22" height="22" viewBox="0 0 21.994 21.994"><path d="M11.203 2c-1.28.002-2.56.007-3.84.002h-.136l-.138.007c-2.614.078-4.926 2.327-5.071 4.94-.032 2.652-.015 5.305-.007 7.955.078 2.619 2.33 4.928 4.94 5.072 2.651.03 5.305.015 7.956.009 2.614-.078 4.924-2.33 5.07-4.942.03-2.65.014-5.304.008-7.956-.078-2.616-2.334-4.926-4.944-5.07C13.762 2 12.483 1.999 11.203 2M11 5.83v.003a5.1 5.1 0 0 1 1.892.364c1.759.672 3.017 2.374 3.254 4.229.05 1.466.01 2.937.022 4.404.03.612.035 1.364-.55 1.735-.714.542-1.881.024-1.976-.861-.03-1.552-.015-3.105-.013-4.654.029-1.056-.626-2.09-1.62-2.472-1.232-.553-2.813.04-3.372 1.272-.625 1.195-.129 2.801 1.053 3.447.715.47 1.583.296 2.381.362.862.033 1.371 1.094.987 1.827-.27.578-.946.752-1.531.697-1.189.07-2.408-.211-3.4-.885-1.74-1.129-2.636-3.373-2.178-5.395.474-2.31 2.694-4.112 5.051-4.072" style="fill:#4c97c3;fill-opacity:1;stroke-width:.0149607"/></svg>
